X:1
T: Over the Water to Charlie (New Way)
T: 8x32J 3C (RSCDS Bk 34)
P: Ower the Water (adapted from song)
C: arr. T. Traub 1-23-1996
R: Jig
M: 6/8
L: 1/8
%
K: D
A,|: "D"D2 A AFA|"G"B/c/dF "A"E2 D|"D"DFA AFA|"G"BAB "D"def|"D"DFA AFA|"G"Bcd "D"AFD|
"Bm"dfd "A"ecA|"G"B3 d2 A :| "D"dfd "A"ecA|"G"d2 F "A"E2 D|"D"dfd "A"ecA|"G"B3 "D"d2 A|
"D"dfd "A"ecA|"G"d2 F "A"E2 D|"D"D2 A AFA|"G"B3 "D"d2 A ||"D"dfd "A"ecA |"G"Bcd "D"AFD|
"Bm"dfd "A"ecA|"G"B3 "D"d2 f/g/|"D"agf "A"edc |"G"dcB "D"AFA|"D"DFA AFA |"G"BAB "D"d2 |]
